X: 14740
T: Gan Ainm
R: polka
M: 2/4
K: Gmajor
d/c/|Bd/d/ ec/c/|d/B/G/B/ Ad/c/|Bd/d/ ec/c/|dB/G/ dc|
Bd/d/ ec/c/|d/B/G/B/ Ad/c/|Bd/d/ ec/c/|dB G2||
c>d ee|=fg e z|G/c/e/c/ G/c/e/c/|d/e/^f/d/ c/B/A/G/|
c>d ee|=fg e z|G/c/e/c/ G/c/e/c/|d/^f/B/d/ c||
c|B>A GA|Bd df|ec dB|c3 c|
B>A GA|Bd df|ec dB|c2 A2||

